X: 102
T:Sean Frank
M:C|
L:1/8
R:reel
D:Frankie Gavin and Alec Finn
Z:Devin McCabe
K:DDor
DE|:~F3A ~G3A|~F3A GECE|Ddd^c defe|d/2d/2d cd A=BcA|
!~d3c A/2B/2c d=B|cBcG ECC2|Dddc A3B|~c3G EDDE:|
!:FAdA FDDF|EGcG ECCE|FAdA FEDF|EDCE D3E|
!FAdA FDDF|EGcG ECCE|~F3E FEDC|A,CEF DCDE:|
